X:1
T:Sarah Armstrong
L:1/8
M:none
I:linebreak $
K:D
V:1 treble
V:1
 DB, |:"D" A,2 D2 "G"B,2 D2 |"D"  A,2 DE F2 E2 D2 |"A" E2 A2 "D" F2 A2 |"A" E2 AB cB A2 |"D" A,2 D2 "G"B,2 D2 |"D"   A,2 DE FE D2 |$
 "A"E2 A2 A2 AB | AF E2 "D" D2 (3ABc ::"D"  d2 d2 dB A2 F2 |"Em" (E4 E)F GA |"A" BA Bc BA FE |$
 "D"  D d2 c dA Bc |"D"  d2 d2 dB A2 F2 |"Em" (E4 E)F GA |"A" BA Bc BA FE |"D"  D2 DD D2 :|]
